X:1
T:Jazzy Tune
M:C
L:1/4
Q:"Allegro"
K:C
%%MIDI program 25 1 % guitar
%%MIDI program 74 2 % flute
[V:Guitar] % voice 1
"C" G,4 | E,4 | "Fm7" A,2D2 | "G7" G,2B,2 | "C" c2e2 | "Am7" A,2D2 | "D7" D,2F,2 | "G7" G,2B,2 :|
[V:Flute] % voice 2
"C" G2E2 | "G7" D2B2 | "C" c2B2 | "Fm7" A2G2 | "Bb7" B,2A,2 | "A7" G2F2 | "D7" F2E2 | "G7" G2F2 :|
[V:Guitar] % voice 1
"C" c2e2 | "Am7" A,2D2 | "D7" D,2F,2 | "G7" G,2B,2 | "C" c2e2 | "Am7" A,2D2 | "D7" D,2F,2 | "G7" G,2B,2 :|
[V:Flute] % voice 2
"C" G2E2 | "G7" D2B2 | "C" c2B2 | "Fm7" A2G2 | "Bb7" B,2A,2 | "A7" G2F2 | "D7" F2E2 | "G7" G2F2 :|
[V:Guitar] % voice 1
"C" G,4 | E,4 | "Fm7" A,2D2 | "G7" G,2B,2 | "C" c2e2 | "Am7" A,2D2 | "D7" D,2F,2 | "G7" G,2B,2 :|
[V:Flute] % voice 2
"C" G2E2 | "G7" D2B2 | "C" c2B2 | "Fm7" A2G2 | "Bb7" B,2A,2 | "A7" G2F2 | "D7" F2E2 | "G7" G2F2 :|
[V:Guitar] % voice 1
"C" c2e2 | "Am7" A,2D2 | "D7" D,2F,2 | "G7" G,2B,2 | "C" c2e2 | "Am7" A,2D2 | "D7" D,2F,2 | "G7" G,2B,2 :|
[V:Flute] % voice 2
"C" G2E2 | "G7" D2B2 | "C" c2B2 | "Fm7" A2G2 | "Bb7" B,2A,2 | "A7" G2F2 | "D7" F2E2 | "G7" G2F2 :|
[V:Guitar] % voice 1